src/topics/icons/visa.svg

<svg height="83" preserveAspectRatio="xMidYMid" viewBox="0 0 256 83" width="256" xmlns="http://www.w3.org/2000/svg" xmlns:xlink="http://www.w3.org/1999/xlink"><linearGradient id="a" x1="45.974197%" x2="54.876873%" y1="-2.006175%" y2="100%"><stop offset="0" stop-color="#222357"/><stop offset="1" stop-color="#254aa5"/></linearGradient><path d="m132.397094 56.2397455c-.146058-11.5154647 10.262446-17.9419856 18.103417-21.7625369 8.056213-3.9204853 10.762116-6.4342082 10.731367-9.9395833-.061498-5.3656837-6.426521-7.7333493-12.384121-7.825596-10.393129-.1614318-16.43529 2.8058375-21.239805 5.0505075l-3.743679-17.51918805c4.81989-2.22160832 13.74476-4.15878926 23.00018-4.24334875 21.7241 0 35.937781 10.7236802 36.014654 27.3511501.084559 21.1014353-29.188397 22.2698937-28.98853 31.7021199.069185 2.859648 2.798151 5.911477 8.778812 6.6878865 2.959582.3920485 11.131104.6918505 20.394211-3.57456l3.636058 16.9503335c-4.981323 1.814185-11.384782 3.5514985-19.356435 3.5514985-20.448021 0-34.830821-10.8697375-34.946129-26.428683m89.241006 24.96811c-3.966609 0-7.310552-2.313855-8.801874-5.8653535l-31.033332-74.09717139h21.708727l4.320221 11.93826199h26.528617l2.506035-11.93826199h19.133506l-16.696655 79.96252489zm3.036454-21.601105 6.265089-30.0263049h-17.157888zm-118.598523 21.601105-17.1117645-79.96252489h20.6863245l17.104078 79.96252489zm-30.602846 0-21.53192-54.4255602-8.7096273 46.2771007c-1.022401 5.1658155-5.0581946 8.1484595-9.5398474 8.1484595h-35.19980784l-.49198246-2.3215425c7.22599245-1.568194 15.4359498-4.0972915 20.409585-6.803195 3.0441415-1.6527535 3.912798-3.097952 4.9121374-7.0261245l16.496787-63.81166289h21.8624706l33.5163055 79.96252489z" fill="url(#a)" transform="matrix(1 0 0 -1 0 82.668428)"/></svg>

<?xml version="1.0" encoding="UTF-8"?>
<svg width="256px" height="83px" viewBox="0 0 256 83" version="1.1" xmlns="http://www.w3.org/2000/svg" xmlns:xlink="http://www.w3.org/1999/xlink" preserveAspectRatio="xMidYMid">
    <defs>
        <linearGradient x1="45.9741966%" y1="-2.00617467%" x2="54.8768726%" y2="100%" id="linearGradient-1">
            <stop stop-color="#222357" offset="0%"></stop>
            <stop stop-color="#254AA5" offset="100%"></stop>
        </linearGradient>
    </defs>
    <g>
        <path d="M132.397094,56.2397455 C132.251036,44.7242808 142.65954,38.2977599 150.500511,34.4772086 C158.556724,30.5567233 161.262627,28.0430004 161.231878,24.5376253 C161.17038,19.1719416 154.805357,16.804276 148.847757,16.7120293 C138.454628,16.5505975 132.412467,19.5178668 127.607952,21.7625368 L123.864273,4.24334875 C128.684163,2.02174043 137.609033,0.084559486 146.864453,-7.10542736e-15 C168.588553,-7.10542736e-15 182.802234,10.7236802 182.879107,27.3511501 C182.963666,48.4525854 153.69071,49.6210438 153.890577,59.05327 C153.959762,61.912918 156.688728,64.964747 162.669389,65.7411565 C165.628971,66.133205 173.800493,66.433007 183.0636,62.1665965 L186.699658,79.11693 C181.718335,80.931115 175.314876,82.6684285 167.343223,82.6684285 C146.895202,82.6684285 132.512402,71.798691 132.397094,56.2397455 M221.6381,81.2078555 C217.671491,81.2078555 214.327548,78.8940005 212.836226,75.342502 L181.802894,1.24533061 L203.511621,1.24533061 L207.831842,13.1835926 L234.360459,13.1835926 L236.866494,1.24533061 L256,1.24533061 L239.303345,81.2078555 L221.6381,81.2078555 M224.674554,59.6067505 L230.939643,29.5804456 L213.781755,29.5804456 L224.674554,59.6067505 M106.076031,81.2078555 L88.9642665,1.24533061 L109.650591,1.24533061 L126.754669,81.2078555 L106.076031,81.2078555 M75.473185,81.2078555 L53.941265,26.7822953 L45.2316377,73.059396 C44.2092367,78.2252115 40.1734431,81.2078555 35.6917903,81.2078555 L0.491982464,81.2078555 L0,78.886313 C7.22599245,77.318119 15.4359498,74.7890215 20.409585,72.083118 C23.4537265,70.4303645 24.322383,68.985166 25.3217224,65.0569935 L41.8185094,1.24533061 L63.68098,1.24533061 L97.1972855,81.2078555 L75.473185,81.2078555" fill="url(#linearGradient-1)" transform="translate(128.000000, 41.334214) scale(1, -1) translate(-128.000000, -41.334214) "></path>
    </g>
</svg>
